X:1
T: Julia McMahon
C:
R:Jig
Q:180
K:G
M:6/8
L:1/16
D2|G2A2G2 G2A2B2|d2B2d2 g4d2|B2A2G2 G2A2B2|d2B2G2 F2G2A2|G2A2G2 G2A2B2|d2B2d2 g4d2|B2c2d2 e2c2A2|G2A2G2 G4D2|
G2A2G2 G2A2B2|d2B2d2 g4d2|B2A2G2 G2A2B2|d2B2G2 F2G2A2|G2A2G2 G2A2B2|d2B2d2 g4d2|B2c2d2 e2c2A2|G2A2G2 G4d2|
g2a2g2 f2e2d2|e2f2e2 d4d2|g2d2B2 G2A2B2|d2B2G2 F2G2A2|g2a2g2 f2e2d2|d2e2f2 g4d2|B2c2d2 e2c2A2|G2A2G2 G4d2|
g2a2g2 f2e2d2|e2f2e2 d4d2|g2d2B2 G2A2B2|d2B2G2 F2G2A2|B2A2B2 c2B2c2|d2c2d2 g4d2|B2c2d2 e2c2A2|G2A2G2 G4||
